wp-content/themes/sayenko-erickson/public/images/history/compass.svg

<?xml version="1.0" encoding="UTF-8"?>
<svg width="58px" height="58px" viewBox="0 0 58 58" version="1.1" xmlns="http://www.w3.org/2000/svg" xmlns:xlink="http://www.w3.org/1999/xlink">
    <!-- Generator: Sketch 61 (89581) - https://sketch.com -->
    <title>compass icon</title>
    <desc>Created with Sketch.</desc>
    <g id="Mockups" stroke="none" stroke-width="1" fill="none" fill-rule="evenodd">
        <g id="Company-History" transform="translate(-692.000000, -184.000000)" fill="#E9731F" fill-rule="nonzero">
            <g id="compass-icon" transform="translate(692.000000, 184.000000)">
                <path d="M29,0 C12.9839193,0 0,12.9839193 0,29 C0,45.0160807 12.9839193,58 29,58 C45.0160807,58 58,45.0160807 58,29 C57.9820637,12.9914714 45.0085286,0.0179362583 29,0 Z M29,56.0666667 C14.051595,56.0666667 1.93333333,43.948405 1.93333333,29 C1.93333333,14.051595 14.051595,1.93333333 29,1.93333333 C43.948405,1.93333333 56.0666667,14.051595 56.0666667,29 C56.0496745,43.9413249 43.9413249,56.0496745 29,56.0666667 Z" id="Shape"></path>
                <path d="M29,5 C15.7451563,5 5,15.7451563 5,29 C5,42.2548437 15.7451563,53 29,53 C42.2548437,53 53,42.2548437 53,29 C52.985,15.75125 42.24875,5.015 29,5 Z M29,51.08 C16.8054687,51.08 6.92,41.1945313 6.92,29 C6.92,16.8054687 16.8054687,6.92 29,6.92 C41.1945313,6.92 51.08,16.8054687 51.08,29 C51.0664063,41.1889063 41.1889063,51.0664063 29,51.08 Z" id="Shape"></path>
                <path d="M43.7162818,15.2817085 C43.4089679,14.9753158 42.9352707,14.9116804 42.5577271,15.1261553 L25.3241089,24.9623034 C25.3137394,24.9693739 25.309026,24.9806868 25.2981852,24.9868147 C25.1878915,25.0815608 25.0846679,25.1847916 24.9894572,25.2955642 C24.9833298,25.3059345 24.9720176,25.3111195 24.9654188,25.3214898 L15.1266598,42.5563142 C14.9112571,42.9343556 14.9753594,43.4095 15.2826735,43.7173067 C15.5904587,44.0246423 16.0655698,44.0887491 16.4435847,43.8733313 L33.674375,34.0371833 C33.6847445,34.0301128 33.6894579,34.0187998 33.7002987,34.012672 C33.8105924,33.9179259 33.913816,33.8146951 34.0090267,33.7039224 C34.0151541,33.6935521 34.0264663,33.6883671 34.0330651,33.6779968 L43.8718241,16.4460007 C44.089112,16.0674879 44.0254811,15.5899867 43.7162818,15.2817085 L43.7162818,15.2817085 Z M18.5566037,40.4431474 L26.0146226,27.38092 L31.6231016,32.9846066 L18.5566037,40.4431474 Z M32.9838613,31.6237517 L27.3852804,26.0243075 L40.4465935,18.5657667 L32.9838613,31.6237517 Z" id="Shape"></path>
                <path d="M14,28 L10,28 C9.44775388,28 9,28.4477539 9,29 C9,29.5522461 9.44775388,30 10,30 L14,30 C14.5522461,30 15,29.5522461 15,29 C15,28.4477539 14.5522461,28 14,28 Z" id="Path"></path>
                <path d="M49,28 L45,28 C44.4477539,28 44,28.4477539 44,29 C44,29.5522461 44.4477539,30 45,30 L49,30 C49.5522461,30 50,29.5522461 50,29 C50,28.4477539 49.5522461,28 49,28 Z" id="Path"></path>
                <path d="M29,15 C29.5522461,15 30,14.5522461 30,14 L30,10 C30,9.44775388 29.5522461,9 29,9 C28.4477539,9 28,9.44775388 28,10 L28,14 C28,14.5522461 28.4477539,15 29,15 Z" id="Path"></path>
                <path d="M29,44 C28.4477539,44 28,44.4477539 28,45 L28,49 C28,49.5522461 28.4477539,50 29,50 C29.5522461,50 30,49.5522461 30,49 L30,45 C30,44.4477539 29.5522461,44 29,44 Z" id="Path"></path>
            </g>
        </g>
    </g>
</svg>

<svg width="58" height="58" viewBox="0 0 58 58" version="1.1" xmlns="http://www.w3.org/2000/svg"><g id="Mockups" stroke="none" stroke-width="1" fill="none" fill-rule="evenodd"><g id="Company-History" transform="translate(-692 -184)" fill="#E9731F" fill-rule="nonzero"><g id="compass-icon" transform="translate(692 184)"><path d="M29 0C12.984 0 0 12.984 0 29s12.984 29 29 29 29-12.984 29-29C57.982 12.991 45.009.018 29 0zm0 56.067C14.052 56.067 1.933 43.948 1.933 29S14.052 1.933 29 1.933 56.067 14.052 56.067 29C56.05 43.941 43.94 56.05 29 56.067z" id="Shape"/><path d="M29 5C15.745 5 5 15.745 5 29s10.745 24 24 24 24-10.745 24-24C52.985 15.751 42.249 5.015 29 5zm0 46.08C16.805 51.08 6.92 41.195 6.92 29 6.92 16.805 16.805 6.92 29 6.92c12.195 0 22.08 9.885 22.08 22.08-.014 12.189-9.891 22.066-22.08 22.08z" id="Shape"/><path d="M43.716 15.282a.965.965 0 0 0-1.158-.156l-17.234 9.836c-.01.007-.015.019-.026.025-.11.095-.213.198-.309.309-.006.01-.017.015-.024.025l-9.838 17.235a.966.966 0 0 0 1.317 1.317l17.23-9.836c.01-.007.015-.018.026-.024.11-.095.214-.198.309-.31.006-.01.017-.015.024-.025l9.839-17.232a.965.965 0 0 0-.156-1.164zm-25.16 25.161l7.459-13.062 5.608 5.604-13.066 7.458zm14.428-8.82l-5.599-5.599 13.062-7.458-7.463 13.058z" id="Shape"/><path d="M14 28h-4a1 1 0 0 0 0 2h4a1 1 0 0 0 0-2zm35 0h-4a1 1 0 0 0 0 2h4a1 1 0 0 0 0-2zM29 15a1 1 0 0 0 1-1v-4a1 1 0 0 0-2 0v4a1 1 0 0 0 1 1zm0 29a1 1 0 0 0-1 1v4a1 1 0 0 0 2 0v-4a1 1 0 0 0-1-1z" id="Path"/></g></g></g></svg>
